src/dsmComponents/Icons/log-out-24px.svg

<svg width="24" height="24" xmlns="http://www.w3.org/2000/svg" xmlns:xlink="http://www.w3.org/1999/xlink"><defs><path d="M22.5 0c.9 0 1.5.6 1.5 1.5v21c0 .9-.6 1.5-1.5 1.5H9c-.9 0-1.5-.6-1.5-1.5V18h3v3H21V3H10.5v3h-3V1.5C7.5.6 8.1 0 9 0h13.5zM6 6v4.5h9v3H6V18l-6-6 6-6z" id="log-out-24px_svg__a"/></defs><use fill="#737373" xlink:href="#log-out-24px_svg__a" fill-rule="evenodd"/></svg>

<?xml version="1.0" encoding="UTF-8"?>
<svg width="24px" height="24px" viewBox="0 0 24 24" version="1.1" xmlns="http://www.w3.org/2000/svg" xmlns:xlink="http://www.w3.org/1999/xlink">
    <!-- Generator: Sketch 59.1 (86144) - https://sketch.com -->
    <title>log-out-24px</title>
    <desc>Created with Sketch.</desc>
    <defs>
        <path d="M22.5,0 C23.4,0 24,0.6 24,1.5 L24,22.5 C24,23.4 23.4,24 22.5,24 L9,24 C8.1,24 7.5,23.4 7.5,22.5 L7.5,18 L10.5,18 L10.5,21 L21,21 L21,3 L10.5,3 L10.5,6 L7.5,6 L7.5,1.5 C7.5,0.6 8.1,0 9,0 L22.5,0 Z M6,6 L6,10.5 L15,10.5 L15,13.5 L6,13.5 L6,18 L0,12 L6,6 Z" id="path-1"></path>
    </defs>
    <g id="Final" stroke="none" stroke-width="1" fill="none" fill-rule="evenodd">
        <g id="All-Nucleo-Icons" transform="translate(-608.000000, -4765.000000)">
            <g id="Solo/Nucleo/24px/log-out" transform="translate(608.000000, 4765.000000)">
                <g id="log-out-copy">
                    <mask id="mask-2" fill="white">
                        <use xlink:href="#path-1"></use>
                    </mask>
                    <g id="Path-3" fill-rule="nonzero"></g>
                    <g id="colour/neutral/chia" mask="url(#mask-2)" fill="#737373">
                        <g transform="translate(-20.000000, -20.000000)" id="Colour">
                            <rect x="0" y="0" width="64" height="64"></rect>
                        </g>
                    </g>
                </g>
            </g>
        </g>
    </g>
</svg>
